X:2
T:Bu shunndach bhi mireadh
Z:Jack Campin, http://www.campin.me.uk/
B:Captain Eoghan Anderson: Measan Milis as an Lios (The Sweet Lapdog of Lismore), 1925
F:http://www.campin.me.uk/Music/Lismore.abc
I:last edit 17-12-2013
M:3/4
L:1/8
Q:1/4=100
K:Eb
E2|E3  F G2|ef3 e2|dc3   B2|BG3
E2|E3  F G2|ef3 e2|dc3   B2|c4
d2|e2 d2 c2|BG3 E2|G3  F E2|CB,3
C2|E3  F G2|Bc3 B2|G2 E2 F2|E4|]

